app/img/_src/main/advantages/adv-1.svg

<svg width="60" height="60" viewBox="0 0 60 60" fill="none" xmlns="http://www.w3.org/2000/svg">
<g clip-path="url(#clip0)">
<path d="M19.3221 59.9999C19.172 59.9999 19.0218 59.9673 18.8828 59.9004L0.57783 51.1509C0.225197 50.9816 0 50.6249 0 50.2332V16.3287C0 15.9982 0.161187 15.688 0.431772 15.4972C0.701193 15.3075 1.04743 15.2615 1.36049 15.3715L19.6654 21.9336C20.0698 22.0785 20.3387 22.4614 20.3387 22.8914V58.9827C20.3387 59.3319 20.16 59.6566 19.8638 59.8433C19.6992 59.9475 19.5106 59.9999 19.3221 59.9999ZM2.03375 49.592L18.3049 57.3697V23.6065L2.03375 17.7736V49.592Z" fill="url(#paint0_linear)"/>
<path d="M56.9491 60C56.8066 60 56.6634 59.9703 56.5301 59.9098L37.2081 51.1598C36.8438 50.9951 36.6105 50.6325 36.6105 50.2334V32.2299C36.6105 31.6684 37.0649 31.2127 37.6271 31.2127C38.1892 31.2127 38.6442 31.6684 38.6442 32.2299V49.5776L55.932 57.4059V22.8909C55.932 22.3294 56.387 21.8738 56.9491 21.8738C57.5112 21.8738 57.9663 22.3294 57.9663 22.8909V58.9828C57.9663 59.3285 57.7906 59.6503 57.5002 59.8377C57.3338 59.9453 57.1417 60 56.9491 60Z" fill="url(#paint1_linear)"/>
<path d="M19.3221 59.9999C19.1336 59.9999 18.945 59.9476 18.7798 59.8434C18.4836 59.6566 18.3049 59.3319 18.3049 58.9828V22.8909C18.3049 22.4614 18.5744 22.0785 18.9782 21.9331L29.435 18.185C29.9651 17.9942 30.5458 18.27 30.7355 18.7989C30.9252 19.3279 30.6506 19.9098 30.1222 20.0995L20.3393 23.6066V57.3697L36.6104 49.592V32.6971C36.6104 32.1355 37.0649 31.6799 37.627 31.6799C38.1891 31.6799 38.6442 32.1355 38.6442 32.6971V50.2333C38.6442 50.6249 38.4184 50.9822 38.0664 51.1509L19.7609 59.901C19.6218 59.9673 19.4722 59.9999 19.3221 59.9999Z" fill="url(#paint2_linear)"/>
<path d="M44.2182 41.4071C43.9296 41.4071 43.6543 41.2843 43.4617 41.069C42.8478 40.3858 28.4359 24.2293 28.4359 15.7818C28.4359 7.08001 35.5159 0 44.2182 0C52.92 0 60 7.08001 60 15.7818C60 24.2293 45.5886 40.3852 44.9753 41.069C44.7826 41.2843 44.5074 41.4071 44.2182 41.4071ZM44.2182 2.03375C36.6372 2.03375 30.4696 8.20134 30.4696 15.7818C30.4696 22.4283 41.2354 35.3832 44.2182 38.8444C47.2004 35.3826 57.9662 22.4254 57.9662 15.7818C57.9662 8.20134 51.7986 2.03375 44.2182 2.03375Z" fill="url(#paint3_linear)"/>
<path d="M44.2182 23.9074C39.7375 23.9074 36.0919 20.2623 36.0919 15.7817C36.0919 11.301 39.7375 7.65601 44.2182 7.65601C48.6994 7.65601 52.3439 11.301 52.3439 15.7817C52.3439 20.2623 48.6994 23.9074 44.2182 23.9074ZM44.2182 9.68976C40.8589 9.68976 38.1257 12.423 38.1257 15.7817C38.1257 19.141 40.8589 21.8736 44.2182 21.8736C47.5769 21.8736 50.3101 19.141 50.3101 15.7817C50.3101 12.423 47.5769 9.68976 44.2182 9.68976Z" fill="url(#paint4_linear)"/>
<path d="M1.01717 48.721C0.780332 48.721 0.549316 48.6389 0.365435 48.4847C0.13442 48.2915 0 48.0058 0 47.7044V27.0509C0 26.5284 0.396276 26.0914 0.915915 26.039L7.01717 25.4286C7.47513 25.385 7.89526 25.6439 8.06285 26.0629L12.014 35.9395L14.8013 37.7981C15.1271 38.0152 15.2988 38.4004 15.2441 38.7885L14.2275 45.9069C14.1629 46.3544 13.8115 46.7064 13.364 46.7699L6.24556 47.7865L1.19872 48.7053C1.1382 48.7158 1.07768 48.721 1.01717 48.721ZM2.03375 27.9709V46.4859L5.9197 45.7795L12.3218 44.8641L13.14 39.1347L10.6226 37.4565C10.4516 37.3419 10.3189 37.1784 10.2421 36.9881L6.45854 27.5287L2.03375 27.9709Z" fill="url(#paint5_linear)"/>
<path d="M25.5927 57.0026C25.4763 57.0026 25.3599 56.9829 25.2488 56.9433C24.9834 56.8479 24.7693 56.6465 24.6582 56.387L22.4551 51.2482C22.3259 50.9479 22.3497 50.6046 22.5179 50.3241L25.5688 45.2395C25.5927 45.2011 25.6183 45.1632 25.6462 45.1277L29.7137 40.0431C30.0437 39.6323 30.6314 39.5386 31.0725 39.8318L34.1234 41.8662C34.4062 42.0547 34.5761 42.3719 34.5761 42.7123V51.8644C34.5761 52.245 34.3637 52.593 34.0274 52.7681L26.0605 56.8892C25.9145 56.9648 25.7533 57.0026 25.5927 57.0026ZM24.529 50.9252L26.096 54.5802L32.5424 51.2459V43.2558L30.7198 42.0413L27.2779 46.3445L24.529 50.9252Z" fill="url(#paint6_linear)"/>
<path d="M20.3393 31.5253C20.1432 31.5253 19.9465 31.4694 19.7748 31.3548L18.7577 30.6769C18.4748 30.4883 18.3049 30.1712 18.3049 29.8308V22.891C18.3049 22.4615 18.5744 22.0787 18.9782 21.9332L26.9084 19.0906C27.4169 18.9073 27.982 19.1569 28.1903 19.6568L30.43 25.0324C30.5394 25.2937 30.5342 25.5875 30.4172 25.8447C30.2997 26.1019 30.0815 26.2992 29.8132 26.3888L23.9389 28.3463L21.0579 31.2273C20.8612 31.4246 20.6011 31.5253 20.3393 31.5253ZM20.3393 23.6067V29.0708L22.6709 26.7385C22.7821 26.6274 22.9183 26.543 23.0678 26.493L28.1321 24.8049L26.6849 21.3315L20.3393 23.6067Z" fill="url(#paint7_linear)"/>
<path d="M19.3221 30.8478C19.1243 30.8478 18.9276 30.7902 18.7577 30.6767L13.673 27.2866C13.5025 27.1725 13.3693 27.009 13.293 26.8187L10.7844 20.5464C10.6361 20.1745 10.7187 19.7503 10.9968 19.4623C11.2738 19.1748 11.6969 19.0771 12.0722 19.2109L19.6655 21.9331C20.0699 22.0779 20.3387 22.4608 20.3387 22.8909V29.8306C20.3387 30.2054 20.1321 30.5499 19.8016 30.7273C19.6521 30.8076 19.4868 30.8478 19.3221 30.8478ZM15.0643 25.7695L18.305 27.9301V23.606L13.5112 21.8882L15.0643 25.7695Z" fill="url(#paint8_linear)"/>
<path d="M56.9491 53.3437C56.8886 53.3437 56.8281 53.3384 56.7675 53.3274L48.632 51.8482C48.3905 51.8045 48.1728 51.6742 48.0192 51.4828L43.9511 46.3981C43.73 46.1205 43.6695 45.7481 43.7905 45.4147C43.9116 45.0813 44.1984 44.8351 44.5464 44.7659L49.2179 43.8313L51.0183 41.1307C51.1522 40.93 51.3529 40.7833 51.5851 40.717L56.6698 39.264C56.9759 39.1755 57.3064 39.2384 57.5618 39.4298C57.8161 39.6224 57.9663 39.9227 57.9663 40.2416V52.3265C57.9663 52.6279 57.8318 52.9142 57.6002 53.1068C57.4169 53.261 57.1853 53.3437 56.9491 53.3437ZM49.3698 49.9151L55.9319 51.108V41.5898L52.5028 42.5698L50.6768 45.3099C50.5266 45.534 50.2945 45.6899 50.0303 45.7429L46.5837 46.4318L49.3698 49.9151Z" fill="url(#paint9_linear)"/>
</g>
<defs>
<linearGradient id="paint0_linear" x1="10.1693" y1="15.3127" x2="10.1693" y2="59.9999" gradientUnits="userSpaceOnUse">
<stop stop-color="#8888D3"/>
<stop offset="1" stop-color="#5E60A3"/>
</linearGradient>
<linearGradient id="paint1_linear" x1="47.2884" y1="21.8738" x2="47.2884" y2="60" gradientUnits="userSpaceOnUse">
<stop stop-color="#8888D3"/>
<stop offset="1" stop-color="#5E60A3"/>
</linearGradient>
<linearGradient id="paint2_linear" x1="28.4746" y1="18.1245" x2="28.4746" y2="59.9999" gradientUnits="userSpaceOnUse">
<stop stop-color="#8888D3"/>
<stop offset="1" stop-color="#5E60A3"/>
</linearGradient>
<linearGradient id="paint3_linear" x1="44.2179" y1="0" x2="44.2179" y2="41.4071" gradientUnits="userSpaceOnUse">
<stop stop-color="#8888D3"/>
<stop offset="1" stop-color="#5E60A3"/>
</linearGradient>
<linearGradient id="paint4_linear" x1="44.2179" y1="7.65601" x2="44.2179" y2="23.9074" gradientUnits="userSpaceOnUse">
<stop stop-color="#8888D3"/>
<stop offset="1" stop-color="#5E60A3"/>
</linearGradient>
<linearGradient id="paint5_linear" x1="7.62708" y1="25.4238" x2="7.62708" y2="48.721" gradientUnits="userSpaceOnUse">
<stop stop-color="#8888D3"/>
<stop offset="1" stop-color="#5E60A3"/>
</linearGradient>
<linearGradient id="paint6_linear" x1="28.4744" y1="39.6611" x2="28.4744" y2="57.0026" gradientUnits="userSpaceOnUse">
<stop stop-color="#8888D3"/>
<stop offset="1" stop-color="#5E60A3"/>
</linearGradient>
<linearGradient id="paint7_linear" x1="24.4068" y1="19.0305" x2="24.4068" y2="31.5253" gradientUnits="userSpaceOnUse">
<stop stop-color="#8888D3"/>
<stop offset="1" stop-color="#5E60A3"/>
</linearGradient>
<linearGradient id="paint8_linear" x1="15.5252" y1="19.1519" x2="15.5252" y2="30.8478" gradientUnits="userSpaceOnUse">
<stop stop-color="#8888D3"/>
<stop offset="1" stop-color="#5E60A3"/>
</linearGradient>
<linearGradient id="paint9_linear" x1="50.8477" y1="39.2246" x2="50.8477" y2="53.3437" gradientUnits="userSpaceOnUse">
<stop stop-color="#8888D3"/>
<stop offset="1" stop-color="#5E60A3"/>
</linearGradient>
<clipPath id="clip0">
<rect width="60" height="60" fill="white"/>
</clipPath>
</defs>
</svg>

<svg width="60" height="60" fill="none" xmlns="http://www.w3.org/2000/svg"><g clip-path="url(#clip0)"><path d="M19.322 60c-.15 0-.3-.033-.44-.1L.579 51.15A1.018 1.018 0 010 50.234V16.33a1.018 1.018 0 011.36-.958l18.305 6.563c.405.144.674.527.674.957v36.092A1.017 1.017 0 0119.322 60zM2.034 49.592l16.27 7.778V23.607l-16.27-5.833v31.818z" fill="url(#paint0_linear)"/><path d="M56.95 60c-.143 0-.287-.03-.42-.09l-19.322-8.75a1.016 1.016 0 01-.597-.927V32.23a1.017 1.017 0 112.033 0v17.348l17.288 7.828V22.89a1.017 1.017 0 112.034 0v36.092A1.018 1.018 0 0156.95 60z" fill="url(#paint1_linear)"/><path d="M19.322 60a1.016 1.016 0 01-1.017-1.017V22.89c0-.43.27-.813.673-.958l10.457-3.748a1.017 1.017 0 01.687 1.915l-9.783 3.507V57.37l16.271-7.778V32.697a1.017 1.017 0 112.034 0v17.536c0 .392-.226.75-.578.918L19.761 59.9c-.14.066-.289.099-.439.099z" fill="url(#paint2_linear)"/><path d="M44.218 41.407c-.288 0-.564-.123-.756-.338-.614-.683-15.026-16.84-15.026-25.287C28.436 7.08 35.516 0 44.218 0S60 7.08 60 15.782c0 8.447-14.411 24.603-15.025 25.287a1.016 1.016 0 01-.757.338zm0-39.373c-7.58 0-13.748 6.167-13.748 13.748 0 6.646 10.765 19.601 13.748 23.062 2.982-3.461 13.748-16.419 13.748-23.062 0-7.58-6.167-13.748-13.748-13.748z" fill="url(#paint3_linear)"/><path d="M44.218 23.907c-4.48 0-8.126-3.645-8.126-8.125 0-4.481 3.645-8.126 8.126-8.126s8.126 3.645 8.126 8.126c0 4.48-3.645 8.125-8.126 8.125zm0-14.217a6.1 6.1 0 00-6.092 6.092 6.099 6.099 0 006.092 6.092 6.099 6.099 0 006.092-6.092 6.1 6.1 0 00-6.092-6.092z" fill="url(#paint4_linear)"/><path d="M1.017 48.721A1.018 1.018 0 010 47.704V27.051c0-.523.396-.96.916-1.012l6.101-.61c.458-.044.878.215 1.046.634l3.951 9.877 2.787 1.858c.326.217.498.602.443.99l-1.017 7.119c-.064.447-.415.8-.863.863l-7.118 1.016-5.047.92a1.06 1.06 0 01-.182.015zm1.017-20.75v18.515l3.886-.706 6.402-.916.818-5.73-2.517-1.678a1.027 1.027 0 01-.38-.468l-3.784-9.46-4.425.443z" fill="url(#paint5_linear)"/><path d="M25.593 57.003a1.016 1.016 0 01-.934-.616l-2.204-5.139c-.13-.3-.105-.643.063-.924l3.05-5.084c.025-.039.05-.077.078-.112l4.068-5.085a1.02 1.02 0 011.359-.211l3.05 2.034c.283.189.453.506.453.846v9.152c0 .381-.212.729-.549.904l-7.966 4.121a1.019 1.019 0 01-.468.114zm-1.064-6.078l1.567 3.655 6.446-3.334v-7.99L30.72 42.04l-3.442 4.303-2.749 4.581z" fill="url(#paint6_linear)"/><path d="M20.34 31.525c-.197 0-.393-.056-.565-.17l-1.017-.678a1.016 1.016 0 01-.453-.846v-6.94c0-.43.27-.812.673-.958l7.93-2.842a1.017 1.017 0 011.282.566l2.24 5.375a1.014 1.014 0 01-.617 1.357l-5.874 1.957-2.881 2.881a1.012 1.012 0 01-.719.298zm0-7.918v5.464l2.33-2.333a1.02 1.02 0 01.398-.245l5.064-1.688-1.447-3.474-6.346 2.276z" fill="url(#paint7_linear)"/><path d="M19.322 30.848c-.198 0-.394-.058-.564-.171l-5.085-3.39a1.022 1.022 0 01-.38-.468l-2.509-6.273a1.018 1.018 0 011.288-1.335l7.594 2.722c.404.145.673.528.673.958v6.94a1.018 1.018 0 01-1.017 1.017zm-4.258-5.078l3.241 2.16v-4.324l-4.794-1.718 1.553 3.881z" fill="url(#paint8_linear)"/><path d="M56.95 53.344a1.03 1.03 0 01-.183-.017l-8.135-1.479a1.02 1.02 0 01-.613-.365l-4.068-5.085a1.02 1.02 0 01.595-1.632l4.672-.935 1.8-2.7c.134-.201.335-.348.567-.414l5.085-1.453a1.018 1.018 0 011.296.978v12.085a1.016 1.016 0 01-1.017 1.017zm-7.58-3.429l6.562 1.193V41.59l-3.43.98-1.825 2.74a1.02 1.02 0 01-.647.433l-3.446.689 2.786 3.483z" fill="url(#paint9_linear)"/></g><defs><linearGradient id="paint1_linear" x1="47.288" y1="21.874" x2="47.288" y2="60" gradientUnits="userSpaceOnUse"><stop stop-color="#8888D3"/><stop offset="1" stop-color="#5E60A3"/></linearGradient><linearGradient id="paint5_linear" x1="7.627" y1="25.424" x2="7.627" y2="48.721" gradientUnits="userSpaceOnUse"><stop stop-color="#8888D3"/><stop offset="1" stop-color="#5E60A3"/></linearGradient><linearGradient id="paint2_linear" x1="28.475" y1="18.125" x2="28.475" y2="60" gradientUnits="userSpaceOnUse"><stop stop-color="#8888D3"/><stop offset="1" stop-color="#5E60A3"/></linearGradient><linearGradient id="paint3_linear" x1="44.218" y1="0" x2="44.218" y2="41.407" gradientUnits="userSpaceOnUse"><stop stop-color="#8888D3"/><stop offset="1" stop-color="#5E60A3"/></linearGradient><linearGradient id="paint4_linear" x1="44.218" y1="7.656" x2="44.218" y2="23.907" gradientUnits="userSpaceOnUse"><stop stop-color="#8888D3"/><stop offset="1" stop-color="#5E60A3"/></linearGradient><linearGradient id="paint0_linear" x1="10.169" y1="15.313" x2="10.169" y2="60" gradientUnits="userSpaceOnUse"><stop stop-color="#8888D3"/><stop offset="1" stop-color="#5E60A3"/></linearGradient><linearGradient id="paint6_linear" x1="28.474" y1="39.661" x2="28.474" y2="57.003" gradientUnits="userSpaceOnUse"><stop stop-color="#8888D3"/><stop offset="1" stop-color="#5E60A3"/></linearGradient><linearGradient id="paint7_linear" x1="24.407" y1="19.03" x2="24.407" y2="31.525" gradientUnits="userSpaceOnUse"><stop stop-color="#8888D3"/><stop offset="1" stop-color="#5E60A3"/></linearGradient><linearGradient id="paint8_linear" x1="15.525" y1="19.152" x2="15.525" y2="30.848" gradientUnits="userSpaceOnUse"><stop stop-color="#8888D3"/><stop offset="1" stop-color="#5E60A3"/></linearGradient><linearGradient id="paint9_linear" x1="50.848" y1="39.225" x2="50.848" y2="53.344" gradientUnits="userSpaceOnUse"><stop stop-color="#8888D3"/><stop offset="1" stop-color="#5E60A3"/></linearGradient><clipPath id="clip0"><path fill="#fff" d="M0 0h60v60H0z"/></clipPath></defs></svg>
